Origami/16x16/apps/unknown-horizons.svg

<svg width="16" height="16" version="1.1" viewBox="0 0 16 16" xmlns="http://www.w3.org/2000/svg">
 <path d="m11 12h-11s2.4 4 9.6 4c4.8 0 6.4-2.4 6.4-3.6 0-1.038124 0-1.4-0.8-1.4h-3.4c-0.8 0-0.8 0.04074-0.8 1z" style="fill:#784421"/>
 <path d="m 9,3 v 9 C 9,12 6,9.9435 6,7.4999996 6,5.0565 9,3 9,3 Z" style="fill:#cccccc"/>
 <path d="m9 3v-3l4 1.5z" style="fill:#c83737"/>
 <path d="m4 6v6s-2-1.371-2-3 2-3 2-3z" style="fill:#cccccc"/>
 <rect x="12" y="12" width="1" height="1" style="opacity:.4"/>
 <rect x="14" y="12" width="1" height="1" style="opacity:.4"/>
</svg>

<svg xmlns="http://www.w3.org/2000/svg" width="16" height="16" version="1.1" viewBox="0 0 16 16">
 <path style="fill:#784421" d="M 11,12 H 0 c 0,0 2.4,4 9.6,4 C 14.4,16 16,13.6 16,12.4 16,11.361876 16,11 15.2,11 H 11.8 C 11,11 11,11.04074 11,12 Z"/>
 <path style="fill:#cccccc" d="m 9,3 v 9 C 9,12 6,9.9435 6,7.4999996 6,5.0565 9,3 9,3 Z"/>
 <path style="fill:#c83737" d="M 9,3 V 0 l 4,1.5 z"/>
 <path style="fill:#cccccc" d="m 4,6 v 6 C 4,12 2,10.629 2,9 2,7.371 4,6 4,6 Z"/>
 <rect style="opacity:0.4" width="1" height="1" x="12" y="12"/>
 <rect style="opacity:0.4" width="1" height="1" x="14" y="12"/>
</svg>
